X: 22505
T: Lady Down
R: reel
M: 4/4
K: Cmajor
G|~c2 (cG) ECC(E|FE)DC B,G,G,E|~c2 cG ECCE|FDGE C/C/C C:|
e|(ga)gf (ec)c(e|fe)dc BGGB|gagf ecce|fdge c/c/c ce|
gagf ecce|fedc BGGB|cGA(F EF)Gf|ecde c/c/c c||

